assets/img/question-info.svg

<svg width="16" height="16" viewBox="0 0 16 16" fill="none" xmlns="http://www.w3.org/2000/svg">
<path d="M8 0.5C3.85938 0.5 0.5 3.85938 0.5 8C0.5 12.1406 3.85938 15.5 8 15.5C12.1406 15.5 15.5 12.1406 15.5 8C15.5 3.85938 12.1406 0.5 8 0.5ZM7.76562 12.375C7.61111 12.375 7.46006 12.3292 7.33159 12.2433C7.20311 12.1575 7.10298 12.0355 7.04384 11.8927C6.98471 11.75 6.96924 11.5929 6.99939 11.4413C7.02953 11.2898 7.10394 11.1506 7.2132 11.0413C7.32246 10.9321 7.46166 10.8577 7.61321 10.8275C7.76476 10.7974 7.92184 10.8128 8.0646 10.872C8.20735 10.9311 8.32937 11.0312 8.41521 11.1597C8.50106 11.2882 8.54688 11.4392 8.54688 11.5938C8.54688 11.801 8.46457 11.9997 8.31805 12.1462C8.17154 12.2927 7.97283 12.375 7.76562 12.375ZM9.07187 8.39062C8.43867 8.81563 8.35156 9.20508 8.35156 9.5625C8.35156 9.70754 8.29395 9.84664 8.19139 9.9492C8.08883 10.0518 7.94973 10.1094 7.80469 10.1094C7.65965 10.1094 7.52055 10.0518 7.41799 9.9492C7.31543 9.84664 7.25781 9.70754 7.25781 9.5625C7.25781 8.70664 7.65156 8.02617 8.46172 7.48203C9.21484 6.97656 9.64062 6.65625 9.64062 5.95195C9.64062 5.47305 9.36719 5.10938 8.80117 4.84023C8.66797 4.77695 8.37148 4.71523 8.00664 4.71953C7.54883 4.72539 7.19336 4.83477 6.91953 5.05508C6.40312 5.4707 6.35938 5.92305 6.35938 5.92969C6.35591 6.0015 6.33834 6.07194 6.30766 6.13696C6.27697 6.20199 6.23379 6.26033 6.18055 6.30866C6.12732 6.357 6.06509 6.39437 5.99742 6.41866C5.92974 6.44294 5.85795 6.45366 5.78613 6.4502C5.71432 6.44673 5.64388 6.42916 5.57886 6.39848C5.51383 6.36779 5.45549 6.3246 5.40716 6.27137C5.35882 6.21814 5.32145 6.15592 5.29716 6.08824C5.27288 6.02057 5.26216 5.94877 5.26562 5.87695C5.26992 5.78203 5.33594 4.92695 6.2332 4.20508C6.69844 3.83086 7.29023 3.63633 7.99102 3.62773C8.48711 3.62188 8.95312 3.70586 9.26914 3.85508C10.2148 4.30234 10.7344 5.04805 10.7344 5.95195C10.7344 7.27344 9.85117 7.8668 9.07187 8.39062Z" fill="#555555"/>
</svg>

<svg width="16" height="16" fill="none" xmlns="http://www.w3.org/2000/svg"><path d="M8 .5C3.86.5.5 3.86.5 8c0 4.14 3.36 7.5 7.5 7.5 4.14 0 7.5-3.36 7.5-7.5C15.5 3.86 12.14.5 8 .5Zm-.234 11.875a.78.78 0 1 1 0-1.562.78.78 0 0 1 0 1.562Zm1.306-3.984c-.633.425-.72.814-.72 1.171a.547.547 0 1 1-1.094 0c0-.855.394-1.536 1.204-2.08.753-.505 1.179-.826 1.179-1.53 0-.479-.274-.843-.84-1.112-.133-.063-.43-.125-.794-.12-.458.005-.814.115-1.087.335-.517.416-.56.868-.56.875a.548.548 0 0 1-1.094-.053c.004-.095.07-.95.967-1.672.465-.374 1.057-.569 1.758-.577.496-.006.962.078 1.278.227.946.447 1.465 1.193 1.465 2.097 0 1.321-.883 1.915-1.662 2.439Z" fill="#555"/></svg>
